X:113
T:Polska ur Sven Donats notbok
T:(MA5-113)
S:Efter Sven Donat
R:Polska
O:Småland
B:Sven Donats notbok
B:http://www.smus.se/earkiv/fmk/browselarge.php?lang=sw&katalogid=Ma+5&bildnr=00115
Z:Christian Fürst
M:3/4
L:1/16
N:Variant på MA5-7 i samma notbok
K:D
|: d2d2 c2c2 B2c2 | d2cB TA8 | GFGA d2cB A2>G2 | FEDC D4 D4:|
|: f2af f2af f2af | Tg2>e2  Te2>d2 c2BA | g2bg g2bg g2bg | Tg2>e2 Te2>d2 c2BA | d2d2 c2c2 B2c2 | d2cB TA8 |GFGA d2cB TA2>G2 | FEDC D4 D4:|

